X:1
T:Title
%%score { ( 1 4 ) | ( 2 3 ) }
L:1/8
Q:1/4=100
M:6/8
K:D
V:1 treble nm="Grand Piano"
V:4 treble 
V:2 bass 
V:3 bass 
V:1
 .[Fd]3 .[FA]3 | FED A3 | [CE]2 [DF] [EG]2 [FA] | [=FB]3 [A,^FA]3 | .[Fd]3 .[FA]3 | FED A3 | %6
w: Elisha~A.~Hoffman *||||||
 B3 z3 | [DFd]6 | [A,CE]2 [A,CE] [A,DF]2 [A,DF] | [A,EG]2 [A,EG] [A,DF]3 | %10
w: ||||
 [G,DG]2 [G,DG] [DA]2 [DA] | [DB]2 [DB] [DA]3 | .[Fd]3 .[FA]3 | FED A3 | B3 z3 | [DFd]6 | %16
w: ||||||
 .[Fd]3 .[FA]3 | .F3 .D3 | .E3 .G3 | .[EGB]3 .[EGc]3 | .[Fd]3 .[FA]3 | FED A3 | B3 z3 | %23
w: |||||||
[M:7/4] [DFd]6 z2 z2 z4 |] %24
w: |
V:2
 .[D,A,]3 .[D,D]3 | [D,A,D][D,G,D][D,F,] [D,F,D]3 | [A,,A,]2 [A,,A,] [A,,A,]2 [A,,A,] | ^G,3 z3 | %4
 .[D,A,]3 .[D,D]3 | [D,A,D][D,G,D][D,F,] [D,F,D]3 | [G,D]2 [E,E] A,,3 | D,6 | G,2 G, F,2 D, | %9
 C,2 A,, D,3 | B,,2 B,, [A,,F,]2 [A,,F,] | [G,,G,]2 [B,,F,] [D,F,]3 | .[D,A,]3 .[D,D]3 | %13
 [D,A,D][D,G,D][D,F,] [D,F,D]3 | [G,D]2 [E,E] A,,3 | D,6 | .[D,A,]3 .[D,D]3 | .[D,A,D]3 .[D,F,]3 | %18
 .[G,B,D]3 .[E,B,E]3 | .E,3 .A,,3 | .[D,A,]3 .[D,D]3 | [D,A,D][D,G,D][D,F,] [D,F,D]3 | %22
 [G,D]2 [E,E] A,,3 |[M:7/4] D,6 z2 z2 z4 |] %24
V:3
 x6 | x6 | x6 | D,6 | x6 | x6 | x6 | x6 | x6 | x6 | x6 | x6 | x6 | x6 | x6 | x6 | x6 | x6 | x6 | %19
 x6 | x6 | x6 | x6 |[M:7/4] x14 |] %24
V:4
 x6 | x6 | x6 | x6 | x6 | x6 | z2 G [EGc]3 | x6 | x6 | x6 | x6 | x6 | x6 | x6 | z2 G [EGc]3 | x6 | %16
 x6 | x6 | x6 | x6 | x6 | x6 | z2 G [EGc]3 |[M:7/4] x14 |] %24

